X: 14094
T: Friar's Green
R: jig
M: 6/8
K: Gmajor
D|:GGG GAB|dgf gdB|GGG GAB|dBe dBA|
GGG GAB|dgf ~g3|dBA ~B3|1 AGF G2D:|2 AGF GAB||
|:d2g f2g|age dBA|d2g f2g|aba ~g3|
edB ~d3|~B3 ~G3|dBA ~B3|1 AGF GAB:|2 AGF G3||

